dist/assets/images/weather/weather_11.svg

<svg width="86" height="86" viewBox="0 0 86 86" fill="none" xmlns="http://www.w3.org/2000/svg">
<path d="M67.1875 27.8291C64.4022 27.6038 61.7032 26.7556 59.2898 25.347C56.8764 23.9385 54.8104 22.0057 53.2443 19.6915C51.6782 17.3772 50.6522 14.7406 50.242 11.9765C49.8318 9.21247 50.0479 6.39155 50.8744 3.72221C50.9165 3.57027 50.9131 3.40931 50.8647 3.25925C50.8163 3.10919 50.7249 2.97662 50.602 2.87795C50.479 2.77928 50.3298 2.71883 50.1728 2.70409C50.0158 2.68935 49.8579 2.72097 49.7187 2.79503C47.2192 4.21208 45.081 6.18744 43.4706 8.567C41.8603 10.9466 40.8216 13.666 40.4354 16.5132C40.0492 19.3603 40.326 22.2582 41.2442 24.9807C42.1624 27.7033 43.6973 30.1769 45.7289 32.2086C47.7606 34.2402 50.2342 35.7751 52.9568 36.6933C55.6793 37.6115 58.5772 37.8883 61.4244 37.5021C64.2715 37.1159 66.9909 36.0772 69.3705 34.4669C71.7501 32.8566 73.7254 30.7183 75.1425 28.2188C75.2299 28.0789 75.2723 27.9156 75.264 27.7508C75.2557 27.586 75.1971 27.4278 75.096 27.2974C74.9949 27.1671 74.8563 27.0708 74.6988 27.0217C74.5413 26.9726 74.3726 26.973 74.2153 27.0228C71.9454 27.7365 69.56 28.0101 67.1875 27.8291Z" fill="#EFCC00"/>
<path d="M31.7933 21.3656C36.0698 21.3643 40.2656 22.5298 43.9287 24.7367C47.5919 26.9435 50.5834 30.1081 52.5811 33.8893C55.0348 32.4548 57.7864 31.6057 60.6218 31.4081C63.4572 31.2104 66.3 31.6696 68.929 32.7499C71.558 33.8302 73.9023 35.5025 75.7796 37.6366C77.6568 39.7707 79.0164 42.3092 79.7526 45.0545C80.4887 47.7998 80.5816 50.6779 80.0239 53.465C79.4663 56.252 78.2732 58.8728 76.5374 61.1235C74.8016 63.3742 72.5699 65.1941 70.0161 66.4417C67.4622 67.6892 64.6549 68.3307 61.8126 68.3162L31.7261 68.3969C25.4893 68.3969 19.5081 65.9193 15.098 61.5093C10.688 57.0992 8.21045 51.118 8.21045 44.8812C8.21045 38.6445 10.688 32.6632 15.098 28.2532C19.5081 23.8431 25.4893 21.3656 31.7261 21.3656H31.7933Z" fill="url(#paint0_linear)"/>
<path d="M79.6794 54.8102C82.4252 44.9822 76.6841 34.7892 66.8561 32.0433C57.0282 29.2974 46.8351 35.0386 44.0893 44.8666C41.3434 54.6945 47.0846 64.8876 56.9125 67.6334C66.7404 70.3793 76.9335 64.6381 79.6794 54.8102Z" fill="url(#paint1_linear)"/>
<path d="M50.8474 73.2344H64.5805" stroke="#A5A9AA" stroke-width="3" stroke-miterlimit="10" stroke-linecap="round"/>
<path d="M21.4194 73.2344H43.9944" stroke="#B9C1C6" stroke-width="3" stroke-miterlimit="10" stroke-linecap="round"/>
<path d="M44.6528 79.9531H59.8641" stroke="#A5A9AA" stroke-width="3" stroke-miterlimit="10" stroke-linecap="round"/>
<path d="M26.8213 79.9531H37.1547" stroke="#A5A9AA" stroke-width="3" stroke-miterlimit="10" stroke-linecap="round"/>
<defs>
<linearGradient id="paint0_linear" x1="25.8673" y1="70.399" x2="54.207" y2="33.7012" gradientUnits="userSpaceOnUse">
<stop stop-color="#F2F2F2"/>
<stop offset="1" stop-color="#CFCFCF"/>
</linearGradient>
<linearGradient id="paint1_linear" x1="69.4396" y1="43.271" x2="48.0191" y2="61.9118" gradientUnits="userSpaceOnUse">
<stop offset="0.02" stop-color="white"/>
<stop offset="1" stop-color="white" stop-opacity="0"/>
</linearGradient>
</defs>
</svg>

<svg width="86" height="86" fill="none" xmlns="http://www.w3.org/2000/svg"><path d="M67.188 27.83A18.65 18.65 0 0150.873 3.721a.807.807 0 00-1.155-.927 18.652 18.652 0 1025.423 25.424.807.807 0 00-.927-1.196 18.69 18.69 0 01-7.028.806z" fill="#EFCC00"/><path d="M31.793 21.366a23.502 23.502 0 0120.788 12.523 18.477 18.477 0 119.232 34.427l-30.087.08a23.516 23.516 0 010-47.03h.067z" fill="url(#paint0_linear)"/><path d="M79.68 54.81c2.745-9.828-2.996-20.02-12.824-22.767-9.828-2.746-20.02 2.996-22.767 12.824-2.746 9.828 2.996 20.02 12.824 22.766 9.827 2.746 20.02-2.995 22.766-12.823z" fill="url(#paint1_linear)"/><path d="M50.847 73.234H64.58" stroke="#A5A9AA" stroke-width="3" stroke-miterlimit="10" stroke-linecap="round"/><path d="M21.42 73.234h22.574" stroke="#B9C1C6" stroke-width="3" stroke-miterlimit="10" stroke-linecap="round"/><path d="M44.653 79.953h15.211m-33.043 0h10.334" stroke="#A5A9AA" stroke-width="3" stroke-miterlimit="10" stroke-linecap="round"/><defs><linearGradient id="paint0_linear" x1="25.867" y1="70.399" x2="54.207" y2="33.701" gradientUnits="userSpaceOnUse"><stop stop-color="#F2F2F2"/><stop offset="1" stop-color="#CFCFCF"/></linearGradient><linearGradient id="paint1_linear" x1="69.44" y1="43.271" x2="48.019" y2="61.912" gradientUnits="userSpaceOnUse"><stop offset=".02" stop-color="#fff"/><stop offset="1" stop-color="#fff" stop-opacity="0"/></linearGradient></defs></svg>
